src/assets/address/OpIcon.svg

<svg viewBox="0 0 84 84" fill="none" xmlns="http://www.w3.org/2000/svg">
<g clip-path="url(#clip0_1139_294)">
<path d="M42 84C65.196 84 84 65.196 84 42C84 18.804 65.196 0 42 0C18.804 0 0 18.804 0 42C0 65.196 18.804 84 42 84Z" fill="#FF0420"/>
<path d="M30.4614 53.7602C27.9282 53.7602 25.8527 53.1504 24.2347 51.9309C22.6382 50.6895 21.8398 48.9255 21.8398 46.6389C21.8398 46.1597 21.8931 45.5717 21.9994 44.8749C22.2763 43.3069 22.6701 41.4232 23.181 39.2235C24.6285 33.2347 28.3646 30.2402 34.3891 30.2402C36.0283 30.2402 37.4971 30.5233 38.7956 31.0896C40.0942 31.634 41.116 32.4615 41.8611 33.5722C42.6062 34.6612 42.9788 35.9679 42.9788 37.4923C42.9788 37.9496 42.9255 38.5267 42.819 39.2235C42.4998 41.1617 42.1166 43.0455 41.6696 44.8749C40.9245 47.8584 39.6366 50.0906 37.8057 51.5715C35.975 53.0306 33.5269 53.7602 30.4614 53.7602ZM30.9085 49.0562C32.1006 49.0562 33.1118 48.6969 33.9421 47.9782C34.7935 47.2596 35.4003 46.1597 35.7622 44.6788C36.2517 42.6317 36.6243 40.8461 36.8797 39.3216C36.9649 38.8642 37.0074 38.396 37.0074 37.9168C37.0074 35.9351 35.9964 34.9442 33.974 34.9442C32.7819 34.9442 31.7601 35.3036 30.9085 36.0223C30.0782 36.7408 29.4822 37.8407 29.1203 39.3216C28.7371 40.7807 28.3539 42.5664 27.9708 44.6788C27.8857 45.1144 27.843 45.5717 27.843 46.0509C27.843 48.0544 28.8648 49.0562 30.9085 49.0562Z" fill="white"/>
<path d="M44.445 53.4332C44.2108 53.4332 44.0299 53.3569 43.9021 53.2044C43.7957 53.0302 43.7638 52.8343 43.8063 52.6164L48.2129 31.3832C48.2554 31.1437 48.3725 30.9476 48.5642 30.7952C48.7557 30.6427 48.958 30.5664 49.1709 30.5664H57.6648C60.0277 30.5664 61.9222 31.0674 63.3486 32.0692C64.7962 33.0709 65.52 34.5191 65.52 36.4138C65.52 36.9583 65.4561 37.5245 65.3284 38.1125C64.7962 40.617 63.7212 42.468 62.1032 43.6659C60.5067 44.8635 58.3139 45.4625 55.5253 45.4625H51.2144L49.7456 52.6164C49.7031 52.856 49.586 53.052 49.3943 53.2044C49.2028 53.3569 49.0005 53.4332 48.7877 53.4332H44.445ZM55.7487 40.9545C56.6428 40.9545 57.4198 40.704 58.0799 40.2032C58.761 39.7022 59.208 38.9835 59.4211 38.0471C59.4849 37.677 59.5168 37.3502 59.5168 37.0672C59.5168 36.4357 59.3359 35.9565 58.974 35.6298C58.612 35.2813 57.9947 35.1071 57.1218 35.1071H53.2901L52.0766 40.9545H55.7487Z" fill="white"/>
</g>
<defs>
<clipPath id="clip0_1139_294">
<rect width="84" height="84" fill="white"/>
</clipPath>
</defs>
</svg>

<svg xmlns="http://www.w3.org/2000/svg" fill="none" viewBox="0 0 84 84"><g clip-path="url(#a)"><path fill="#FF0420" d="M42 84c23.196 0 42-18.804 42-42S65.196 0 42 0 0 18.804 0 42s18.804 42 42 42Z"/><path fill="#fff" d="M30.461 53.76c-2.533 0-4.608-.61-6.226-1.83-1.597-1.24-2.395-3.005-2.395-5.291 0-.48.053-1.067.16-1.764.276-1.568.67-3.452 1.181-5.651 1.447-5.99 5.184-8.984 11.208-8.984 1.64 0 3.108.283 4.407.85 1.298.544 2.32 1.372 3.065 2.482.745 1.09 1.118 2.396 1.118 3.92 0 .458-.053 1.035-.16 1.732a75.478 75.478 0 0 1-1.15 5.65c-.744 2.984-2.032 5.217-3.863 6.697-1.831 1.46-4.28 2.19-7.345 2.19Zm.448-4.704c1.192 0 2.203-.36 3.033-1.078.852-.718 1.458-1.818 1.82-3.3.49-2.046.862-3.832 1.118-5.356.085-.458.127-.926.127-1.405 0-1.982-1.01-2.973-3.033-2.973-1.192 0-2.214.36-3.065 1.078-.83.719-1.427 1.819-1.789 3.3-.383 1.459-.766 3.244-1.15 5.357a7.144 7.144 0 0 0-.127 1.372c0 2.003 1.022 3.005 3.066 3.005ZM44.445 53.433c-.234 0-.415-.076-.543-.229a.797.797 0 0 1-.096-.588l4.407-21.233a.938.938 0 0 1 .351-.588.96.96 0 0 1 .607-.229h8.494c2.363 0 4.257.501 5.684 1.503 1.447 1.002 2.171 2.45 2.171 4.345a8 8 0 0 1-.192 1.698c-.532 2.505-1.607 4.356-3.225 5.554-1.596 1.198-3.79 1.797-6.578 1.797h-4.31l-1.47 7.153a.937.937 0 0 1-.35.588.96.96 0 0 1-.607.23h-4.343Zm11.304-12.478c.894 0 1.67-.251 2.33-.752.682-.5 1.129-1.22 1.342-2.156.064-.37.096-.697.096-.98 0-.631-.181-1.11-.543-1.437-.362-.349-.98-.523-1.852-.523H53.29l-1.213 5.848h3.672Z"/></g><defs><clipPath id="a"><path fill="#fff" d="M0 0h84v84H0z"/></clipPath></defs></svg>
